X: 4284
T: Bobby Brown's
R: jig
M: 6/8
K: Amajor
|:aec Ace|dcd B2 e|gfe dcd|fed c2 e|
aec Ace|dcd B2 e|gfe bag|1 a3 a2 e:|2 a3 a||
K:D
f=g|:afd edc|dBA F2 A|dcB AFA|dAF EFE|
DFA dfe|dcB A2 A|cBA edc|1 d3 dfg:|2 d3 d2 e||
K:A
|:aec Ace|dcd B2 e|gfe dcd|fed c2 e|
aec Ace|dcd B2 e|gfe bag|1 a3 a2 e:|2 a3 a3||


